X:1
T:02 - Dissi à l'amata mia
T:                                        Luca Marenzio (1556 - 1599) 1º Libro di Madrigali a quattro voci (Venetia, 1592)
T:Giovanni Battista Moscaglia
T:02 - Dissi à l'amata mia
T:© 2018 Ed. Marcos Mato
T:© 2018 Ed. Marcos Mato
T:© 2018 Ed. Marcos Mato
T:© 2018 Ed. Marcos Mato
T:© 2018 Ed. Marcos Mato
C:Luca Marenzio (1556 - 1599)
C:1º Libro di Madrigali a quattro voci (Venetia, 1592)
Z:Giovanni Battista Moscaglia
Z:© 2018 Ed. Marcos Mato
%%score [ 1 2 3 4 ]
L:1/8
M:4/4
K:F
V:1 alto1 nm="Soprano" snm="S."
V:2 alto nm="Alto" snm="A."
V:3 tenor transpose=-12 nm="Tenor" snm="T."
V:4 bass nm="Basso" snm="B."
V:1
 F4 | [Cd]2 |[M:4/2] F8 G8 | z2 A4 c2 B2 A2 G2 A2- | AG F4 B3 A AG/F/ G4 | A4 c4 c2 B2 A2 A2 | %6
w: ||Dis- si|a l'a- ma- ta mia, lu-|* ci- da stel- * * * * *|la che piu d'ogn' al- tra|
 G8 G8 | z4 G8 A4 | z8 z2 A4 c2 | B2 A2 c4 z8 | z2 F3 G A2 G8 | G4 A4 A2 G2 F2 E2 | %12
w: lu- ce,|dis- si|à l'a-|ma- ta mia,|lu- ci- da stel-|la che piu d'ogn' al- tra|
 D2 E2 F6 ED E4 | F4 A4 B4 c4 | d4 c4 B8 | A2 A3 GFE D2 d2 cBAG | F2 B2 G2 A4 GF G4 | %17
w: lu- * * * * *|ce, et al mio|cor ad- du-|ce fiam- * * * * me, stra- * * *|* li\_e ca- te- * * *|
 A2 GF E2 F2 GA B4 AG | A4 z2 C2 D4 E4 | F4 E4 D8 | C4 z2 F3 GAB c2 c2 | z2 A3 GFE D2 d2 cBAG | %22
w: ne, _ _ _ _ _ _ _ _ _|_ et al mio|cor ad- du-|ce fiam- * * * * me,|fiam- * * * * me stra- * * *|
 F2 B2 A2 B3 AAG/F/ G4 | A8 z4 A4 | c8 z4 z2 A2 | B4 c4 d4 c4- | c2 BA =B4 c4 z2 A2 | c4 A4 d4 G4 | %28
w: * li\_e ca- te- * * * * *|ne, ch'ogn'|hor mi|dan- no pe- *|* * * * ne, ch'ogn'|hor mi dan- no|
 G8 G8 | A8 z2 AB c4 | z2 AB c6 A2 G4 | F4 z4 A4 z4 | z2 EF G4 z8 | z2 Bc d4 z2 Bc d4- | %34
w: pe- ne:|"Deh! mo- ri- rò,|mo- ri- rò, cor mi-|o. Si|mo- ri- rò|mo- ri- rò, mo- ri- rò,|
 d2 B2 A4 B4 z4 | z4 A4 z2 c2 c2 =B2 | c4 G4 G6 A2 | D2 E2 F6 ED E4 | F4 A4 z2 c2 c2 =B2 | %39
w: _ cor mi- o.|Si, si, mo- ri-|rai, ma non per|mio de- si- * * *|o, si, si, mo- ri-|
 c4 G4 G6 A2 | D2 E2 F6 ED E4 | F16 |] %42
w: rai, ma non per|mio de- si- * * *|o."|
V:2
 F4 | [F,A]2 |[M:4/2] z4 F8 E4 | z2 F4 C2 D2 F2 E4 | F3 E D2 G3 F F3 E/D/ E2 | F4 A4 A2 G2 F2 E2 | %6
w: ||Dis- si|a l'a- ma- ta mia,|lu- ci- da stel- * * * * *|la che piu d'ogn' al- tra|
 D8 E8 | z2 G4 D2 E2 G2 ^F4 | G2 =FE D3 E F4 E3 F | G2 C4 E2 D2 C2 G4 | A3 G F2 F3 E ED/C/ D4 | %11
w: lu- ce,|à l'a- ma- ta mia,|lu- ci- da stel- * * * *|la, a l'a- ma- ta mia,|lu- ci- da stel- * * * * *|
 E4 z4 z4 F4 | F2 E2 D2 D2 C8 | A,2 C4 D4 E4 F2- | F2 G4 F4 ED E4 | F8 z8 | z16 | C8 D4 E4 | %18
w: la che|piu d'ogn' al- tra lu-|ce, et al mio cor|_ ad- du- * * *|ce,||et al mio|
 F4 E4 D4 G4 | z16 | z2 C3 B,A,G, F,2 F2 EDCB, | A,3 B, C4 B,4 z4 | z4 F4 E2 F3 E/D/ E2 | %23
w: cor ad du- ce||fiam- * * * * me, stra- * * *|* * * li|e ca- te- * * *|
 F3 E/D/ C4 z4 F4 | A8 z2 E2 F4 | G4 A4 G8 | z8 z4 E4- | E4 F8 E4 | D8 E8 | F12 z2 FG | %30
w: * * * ne, ch'ogn'|hor mi dan-|no pe- ne,|mi|_ dan- no|pe- ne:|"Deh! mo- ri-|
 A4 z2 FG A2 F2 E4 | F4 z4 F4 z4 | z4 z2 CD E4 z4 | z4 z2 B,C D4 z2 DE | F2 D2 C4 B,4 z4 | %35
w: rò, mo- ri- rò, cor mi-|o. Si,|mo- ri- rò,|mo- ri- rò, mo- ri-|rò, cor mi- o.|
 z4 F4 z2 F2 E2 D2 | C4 E4 E6 F2 | F4 F,4 G,8 | A,4 F4 z2 F2 E2 D2 | C4 E4 E6 F2 | F4 F,4 G,8 | %41
w: Si, si, mo- ri-|rai, mia non per|mio de- si-|o, si, si, mo- ri-|rai, ma non per|mio de- si-|
 A,16 |] %42
w: o."|
V:3
 F,4 | [F,F]2 |[M:4/2] z16 | z2 F,4 A,2 G,2 F,2 C4 | D3 C B,4 C8 | F,8 z4 C4- | C4 =B,4 z2 C4 G,2 | %7
w: |||A l'a- ma- ta mia,|lu- ci- da stel-|la, dis-|* si à l'a-|
 A,2 C2 =B,4 C3 B, A,2 D2- | DC C3 =B,/A,/ B,2 C8 | z2 A,4 C2 _B,2 A,2 G,2 C2- | %10
w: ma- ta mia, lu- ci- da stel-|* * * * * * la,|a l'a- ma- ta mia, lu-|
 CB, A,4 D3 C C3 =B,/A,/ B,2 | C8 z4 D4 | D2 C2 B,2 A,2 G,8 | F,8 z8 | z16 | z4 A,4 B,4 C4 | %16
w: * ci- da stel- * * * * *|la che|piu d'ogn' al- tra lu-|ce,||et al mio|
 D4 C4 B,8 | A,8 z8 | z2 C3 B,A,G, F,2 F2 EDCB, | A,2 F,2 G,2 A,4 G,F, G,4 | A,8 z8 | %21
w: cor ad- du-|ce|fiam- * * * * me, stra- * * *|* li\_e ca- te- * * *|ne,|
 z2 C3 B,A,G, F,2 F2 EDCB, | A,2 D4 B,2 C8 | F,4 A,4 C8 | z4 A,4 C8 | z4 z2 A,2 B,4 C4 | %26
w: fiam- * * * * me, stra- * * *|* li\_e ca- te-|ne, ch'ogn' hor,|ch'ogn' hor|mi dan- no|
 D8 C2 A,2 C4 | z2 A,2 C2 A,2 =B,4 C4- | C4 =B,4 C8 | C12 z4 | z16 | z4 A,4 z2 C2 C2 =B,2 | %32
w: pe- ne, ch'ogn' hor,|ch'ogn' hor mi dan- no|_ pe- ne:|"Deh!||Si, si, mo- ri-|
 C8 z2 G,2 G,2 ^F,2 | G,2 G,A, B,4 z2 DE =F4 | z8 z2 D2 C2 =B,2 | C4 z4 A,4 z4 | z4 C4 C6 C2 | %37
w: rai, si, mo- ri-|rai, mo- ri- rò, mo- ri- rò.|Si, mo- ri-|rai, si,|ma non per|
 B,4 A,4 C8 | C4 z4 A,4 z4 | z4 C4 C6 C2 | B,4 A,4 C8 | C16 |] %42
w: mio de- si-|o, si,|ma non per|mio de- si-|o."|
V:4
 F,4 | [F,,D]2 |[M:4/2] z16 | z16 | z16 | z8 F,8 | G,8 z2 C,4 E,2 | D,2 C,2 G,4 z8 | G,8 A,8 | %9
w: |||||Dis-|si à l'a-|ma- ta mia,|dis- si|
 z2 F,4 C,2 D,2 F,2 E,4 | F,3 E, D,4 G,8 | C,4 F,4 F,2 E,2 D,2 C,2 | B,,8 C,8 | F,,4 F,4 G,4 A,4 | %14
w: à l'a- ma- ta mia,|lu- ci- da stel-|la che piu d'ogn' al- tra|lu- *|ce, et al mio|
 B,4 A,4 G,8 | F,2 F,3 E,D,C, B,,2 B,2 A,G,F,E, | D,2 G,2 z2 C,2 D,4 E,4 | F,4 A,4 G,8 | %18
w: cor ad- du-|ce fiam- * * * * me, stra- * * *|* li, et al mio|cor ad- du-|
 F,4 z2 A,,2 B,,4 C,4 | D,4 C,4 B,,8 | A,,2 A,3 G,F,E, D,2 D2 CB,A,G, | F,4 F,,4 B,,4 C,4 | %22
w: ce, et al mio|cor ad- du-|ce fiam- * * * * me, stra- * * *|* li\_e ca- te-|
 D,4 z4 z8 | z4 F,4 F,8 | z4 F,4 A,8 | z8 z4 z2 E,2 | F,4 G,4 A,8- | A,8 G,8- | G,8 z8 | F,12 z4 | %30
w: ne,|ch'ogn' hor,|ch'ogn' hor|mi|dan- no pe-|* ne:|_|"Deh!|
 z16 | z4 F,4 z2 F,2 E,2 D,2 | C,8 z2 C,2 B,,2 A,,2 | G,,4 z2 G,A, B,8 | z8 z2 B,2 A,2 G,2 | %35
w: |Si, si, mo- ri-|rai, si, mo- ri-|rai, mo- ri- rò,|si, mo- ri-|
 F,4 z4 F,4 z4 | z4 C,4 C,6 A,,2 | B,,4 D,4 C,8 | F,,4 z4 F,4 z4 | z4 C,4 C,6 A,,2 | B,,4 D,4 C,8 | %41
w: rai, si,|ma non per|mio de- si-|o, si,|ma non per|mio de- si-|
 F,,16 |] %42
w: o."|

